dist/img/common/logo.svg

<svg width="1145" height="191" viewBox="0 0 1145 191" fill="none" xmlns="http://www.w3.org/2000/svg">
<path d="M1112.5 1.85595C1105.2 5.15595 1099.1 14.456 1099.1 22.456C1099.1 30.456 1105.2 39.756 1112.5 43.056C1117.3 45.256 1125.8 45.556 1130.4 43.656C1139.2 39.956 1144.4 31.956 1144.4 22.456C1144.4 12.956 1139.2 4.95595 1130.4 1.25595C1125.8 -0.644047 1117.3 -0.344047 1112.5 1.85595ZM1129.7 5.85595C1132 6.85595 1135.1 9.45595 1136.7 11.556C1139.3 14.856 1139.6 16.156 1139.6 22.456C1139.6 28.756 1139.3 30.056 1136.7 33.356C1131.4 40.356 1122.4 42.656 1114.6 39.056C1108.4 36.256 1103.1 28.656 1103.1 22.456C1103.1 19.456 1105.5 13.656 1107.8 10.856C1113.3 4.45595 1122.1 2.35595 1129.7 5.85595Z" fill="white"/>
<path d="M1110.1 23.4559C1110.1 34.2559 1110.2 34.9559 1112.1 34.9559C1113.8 34.9559 1114.1 34.2559 1114.1 30.4559V25.9559H1118.5C1122.5 25.9559 1123.1 26.3559 1126.2 30.4559C1128.8 33.8559 1130.3 34.8559 1132.4 34.9559H1135.3L1131.7 30.7559L1128.1 26.5559L1131.1 25.3559C1133.8 24.1559 1134.1 23.6559 1134.1 19.1559C1134.1 16.5559 1133.6 13.8559 1132.9 13.1559C1132.1 12.3559 1128 11.9559 1120.9 11.9559H1110.1V23.4559ZM1129.9 18.6559C1129.6 21.4559 1129.5 21.4559 1121.9 21.7559L1114.1 22.0559V18.9559V15.9559H1122.2H1130.2L1129.9 18.6559Z" fill="white"/>
<path d="M32.1 76.156C18.6 100.456 5.9 123.356 3.8 127.156L0 134.056L9.8 133.756L19.5 133.456L26.1 121.456L32.8 109.456L65.3 109.156L97.9 108.956L104.7 121.456L111.6 133.956H120.9C125.9 133.956 130.1 133.656 130.1 133.256C130.1 132.856 117.6 109.956 102.4 82.256L74.6 32.056L65.6 31.956H56.6L32.1 76.156ZM77.4 71.656C83.3 82.156 88.1 91.056 88.1 91.356C88.1 91.656 77.8 91.956 65.2 91.956H42.2L51.3 75.656C64.5 51.956 65.2 50.656 66 51.656C66.4 52.056 71.6 61.056 77.4 71.656Z" fill="white"/>
<path d="M140.3 76.6559C140.6 119.656 140.7 121.656 142.7 125.356C143.9 127.856 146.2 130.156 148.7 131.356C152.5 133.356 154.1 133.456 195.1 133.456C235.9 133.456 237.7 133.356 241.1 131.456C243.2 130.256 245.5 127.556 246.9 124.956C249.1 120.556 249.1 120.156 249.1 76.2559V31.9559H240.1H231.1V74.4559V116.956H194.6H158.1V74.4559V31.9559H149.1H140L140.3 76.6559Z" fill="white"/>
<path d="M262.1 40.4559V48.9559H282.6H303.1V91.4559V133.956H312.1H321.1V91.4559V48.9559H341.6H362.1V40.4559V31.9559H312.1H262.1V40.4559Z" fill="white"/>
<path d="M385.8 33.1559C380.3 34.6559 376.5 38.9559 375.1 45.2559C374.3 48.7559 374.1 61.8559 374.3 85.9559C374.6 119.556 374.7 121.656 376.7 125.356C377.9 127.856 380.2 130.156 382.7 131.356C386.5 133.356 388.1 133.456 430.6 133.456C472.9 133.456 474.7 133.356 478.1 131.456C480.2 130.256 482.5 127.556 483.9 124.956C486.1 120.556 486.1 119.956 486.1 82.9559C486.1 45.9559 486.1 45.3559 483.9 40.9559C482.5 38.3559 480.2 35.6559 478.1 34.4559C474.8 32.5559 472.8 32.4559 432.1 32.2559C405.7 32.1559 388.2 32.5559 385.8 33.1559ZM468.1 82.9559V116.956H430.1H392.1V82.9559V48.9559H430.1H468.1V82.9559Z" fill="white"/>
<path d="M506.1 82.9559V133.956H515.1H524.1V111.956V89.9559H549.1H574.1V81.9559V73.9559H549.1H524.1V60.9559V47.9559H562.6H601.1V39.9559V31.9559H553.6H506.1V82.9559Z" fill="#DC492B"/>
<path d="M614.1 82.8559V133.956H623.1H632.1V112.956V91.9559H649.4H666.6L682.6 112.956L698.6 133.956H709.4H720.3L713.5 125.156C709.7 120.356 702.4 111.056 697.3 104.456L687.9 92.4559L695.7 91.7559C704.9 90.8559 707.9 89.7559 711.4 86.1559C715.1 82.2559 716.1 77.0559 716.1 61.9559C716.1 47.2559 715.1 41.7559 711.8 38.1559C706.5 32.3559 707.4 32.4559 658.9 32.1559L614.1 31.8559V82.8559ZM696 50.3559C697.9 52.0559 698.1 53.3559 698.1 61.9559C698.1 76.3559 700.6 75.3559 663 75.7559L632.1 76.0559V61.9559V47.8559L663 48.1559C691.7 48.4559 694 48.5559 696 50.3559Z" fill="#DC492B"/>
<path d="M754.9 82.3559C739.6 110.056 727.1 132.956 727.1 133.356C727.1 133.656 731.1 133.956 736 133.956H745L752.1 120.956L759.2 107.956H791.5H823.7L830.7 120.656L837.7 133.456L847 133.756C854.3 133.956 856.2 133.756 855.8 132.756C855.5 132.056 842.9 109.156 827.8 81.9559L800.3 32.4559L791.5 32.2559L782.6 31.9559L754.9 82.3559ZM804.4 72.9559L814.7 91.4559L803.5 91.7559C797.3 91.8559 786.8 91.8559 780.2 91.7559L768.2 91.4559L779.8 70.5559C790.8 50.7559 791.5 49.8559 792.7 52.0559C793.4 53.3559 798.7 62.7559 804.4 72.9559Z" fill="#DC492B"/>
<path d="M866.1 82.9559V133.956H875.1H884.1L884.3 92.4559L884.6 50.8559L919.1 92.4559L953.6 133.956H963.9H974.1V82.9559V31.9559H965.1H956.1L956.2 67.6559C956.2 87.3559 956.6 105.656 957.1 108.456C957.5 111.156 957.8 113.556 957.7 113.656C957.6 113.856 955.7 111.356 953.5 108.156C951.3 105.056 936.4 86.5559 920.2 67.1559L891 31.9559H878.5H866.1V82.9559Z" fill="#DC492B"/>
<path d="M987.1 39.9559V47.9559H1007.6H1028.1V90.9559V133.956H1037.1H1046.1V90.9559V47.9559H1066.6H1087.1V39.9559V31.9559H1037.1H987.1V39.9559Z" fill="#DC492B"/>
<path d="M572.1 174.956V190.956H587.9C600 190.956 604.2 190.656 605.7 189.556C607.4 188.256 607.6 186.856 607.6 174.956C607.6 163.056 607.4 161.656 605.7 160.356C604.2 159.256 600 158.956 587.9 158.956H572.1V174.956ZM601.6 174.956V185.456L589.9 185.756L578.1 186.056V174.956V163.856L589.9 164.156L601.6 164.456V174.956Z" fill="white"/>
<path d="M612.1 174.956V190.956H628.1H644.1V188.456V185.956H631.1H618.1V181.456V176.956H626.1C634 176.956 634.1 176.956 634.1 174.456C634.1 171.956 634 171.956 626.1 171.956H618.1V167.956V163.956H631.1H644.1V161.456V158.956H628.1H612.1V174.956Z" fill="white"/>
<path d="M650.6 160.356C649.4 161.256 648.6 163.356 648.3 167.156C647.9 171.856 648.2 173.056 650 174.856C651.9 176.756 653.2 176.956 663.1 176.956H674.1V181.456V185.956H664.1C654.8 185.956 654.1 185.856 654.1 183.956C654.1 182.356 653.4 181.956 651 181.956C648 181.956 647.9 182.056 648.5 185.156C649.5 190.356 651.1 190.956 664.6 190.956C679.3 190.956 680.1 190.456 680.1 181.356C680.1 178.156 679.6 174.756 679.1 173.956C678.4 172.856 675.4 172.356 666.4 171.956L654.6 171.456L654.3 167.656L654 163.956H663.5C672.4 163.956 673.1 164.056 673.1 165.956C673.1 167.556 673.8 167.956 676.1 167.956C678.8 167.956 679.1 167.656 679.1 165.056C679.1 160.056 676.3 158.956 663.6 158.956C655.8 158.956 651.9 159.356 650.6 160.356Z" fill="white"/>
<path d="M686.1 174.956V190.956H689.1H692.1V174.956V158.956H689.1H686.1V174.956Z" fill="white"/>
<path d="M698.5 160.356C696.8 161.656 696.6 163.056 696.6 174.956C696.6 191.656 695.8 190.956 714.1 190.956C731.4 190.956 731.4 190.956 731.9 180.056L732.3 171.956H722.7C713.1 171.956 713.1 171.956 713.1 174.456C713.1 176.856 713.3 176.956 719.6 176.956H726.1V181.456V185.956H714.1H702.1V174.956V163.956H714.1C725.4 163.956 726.1 164.056 726.1 165.956C726.1 167.556 726.8 167.956 729.2 167.956C732.2 167.956 732.3 167.856 731.7 164.656C731.4 162.956 730.3 160.856 729.4 160.156C726.9 158.356 701.1 158.456 698.5 160.356Z" fill="white"/>
<path d="M736.1 174.956V190.956H739.1H742L742.3 178.256L742.6 165.456L753.4 178.256C763.4 189.956 764.5 190.956 767.7 190.956H771.1V174.956V158.956H768.1H765.2L764.9 170.956L764.6 182.956L754.6 170.956C744.7 159.256 744.5 159.056 740.4 158.956H736.1V174.956Z" fill="white"/>
<path d="M791.1 159.556C791.1 159.856 794.7 164.356 799.1 169.556L807.1 179.056V185.056C807.1 190.956 807.1 190.956 810.1 190.956H813.1V184.856V178.856L821.3 169.156L829.4 159.456L826.1 159.156C823.1 158.856 822.2 159.356 819.2 163.156C817.2 165.456 814.3 168.956 812.6 170.756L809.6 173.956L803.6 166.456C798.4 159.856 797.2 158.956 794.4 158.956C792.6 158.956 791.1 159.156 791.1 159.556Z" fill="white"/>
<path d="M833.5 160.356C831.8 161.656 831.6 163.056 831.6 174.956C831.6 191.656 830.8 190.956 849.1 190.956C867.4 190.956 866.6 191.656 866.6 174.956C866.6 163.056 866.4 161.656 864.7 160.356C861.9 158.356 836.3 158.356 833.5 160.356ZM861.1 174.956V185.956H849.1H837.1V174.956V163.956H849.1H861.1V174.956Z" fill="white"/>
<path d="M871.3 173.556C871.6 186.656 871.8 188.256 873.5 189.556C875 190.556 878.9 190.956 889.1 190.956C906.9 190.956 906.1 191.856 906.1 173.156V158.956H903.1H900.1V172.456V185.956H888.6H877.1V172.456V158.956H874H871L871.3 173.556Z" fill="white"/>
<path d="M911.1 174.956V190.956H914.1H917.1V184.456V177.956H922.5H927.9L933.1 184.456C937.7 190.156 938.7 190.956 941.7 190.956H945.1L940 184.456C935.2 178.356 935.1 177.956 937.3 177.956C942.1 177.956 943.6 175.756 943.6 168.456C943.6 159.156 943.3 158.956 925.4 158.956H911.1V174.956ZM937.6 168.456V172.456L927.4 172.756L917.1 173.056V168.456V163.856L927.4 164.156L937.6 164.456V168.456Z" fill="white"/>
<path d="M968.5 160.356C966.8 161.656 966.6 163.056 966.6 174.956C966.6 191.656 965.9 190.956 983.1 190.956C997.3 190.956 999.1 190.156 999.1 184.156C999.1 181.256 998.8 180.956 996.1 180.956C993.6 180.956 993.1 181.356 993.1 183.456V185.956H982.6H972.1V174.956V163.956H982.6H993.1V166.456C993.1 168.556 993.6 168.956 996.1 168.956C998.8 168.956 999.1 168.656 999.1 165.656C999.1 159.756 997.1 158.956 983 158.956C973.8 158.956 970 159.356 968.5 160.356Z" fill="white"/>
<path d="M1015.8 163.156C1014.4 165.556 1011.4 170.856 1009.1 174.956C1006.8 179.056 1003.8 184.356 1002.4 186.656L1000 190.956H1003C1005.4 190.956 1006.4 190.256 1008.2 186.956L1010.5 182.956H1020.8H1031L1033.3 186.956C1035.1 190.156 1036.2 190.956 1038.4 190.956C1040 190.956 1041.1 190.556 1040.9 190.156C1040.8 189.656 1036.8 182.456 1032.1 174.156C1024.4 160.356 1023.4 158.956 1020.9 158.956C1018.7 158.956 1017.7 159.856 1015.8 163.156ZM1025.1 172.156L1028.3 177.956H1021.2C1017.3 177.956 1014.1 177.656 1014.1 177.356C1014.1 175.756 1020.6 165.056 1021.2 165.756C1021.6 166.156 1023.3 169.056 1025.1 172.156Z" fill="white"/>
<path d="M1042.1 174.956V190.956H1045.1H1048.1V184.456V177.956H1053.5H1058.9L1064.1 184.456C1068.7 190.156 1069.7 190.956 1072.7 190.956H1076.1L1071 184.456C1066.2 178.356 1066.1 177.956 1068.3 177.956C1073.1 177.956 1074.6 175.756 1074.6 168.456C1074.6 159.156 1074.3 158.956 1056.4 158.956H1042.1V174.956ZM1068.6 168.456V172.456L1058.4 172.756L1048.1 173.056V168.456V163.856L1058.4 164.156L1068.6 164.456V168.456Z" fill="white"/>
</svg>

<svg width="1145" height="191" viewBox="0 0 1145 191" fill="none" xmlns="http://www.w3.org/2000/svg"><path d="M1112.5 1.856c-7.3 3.3-13.4 12.6-13.4 20.6 0 8 6.1 17.3 13.4 20.6 4.8 2.2 13.3 2.5 17.9.6 8.8-3.7 14-11.7 14-21.2s-5.2-17.5-14-21.2c-4.6-1.9-13.1-1.6-17.9.6zm17.2 4c2.3 1 5.4 3.6 7 5.7 2.6 3.3 2.9 4.6 2.9 10.9 0 6.3-.3 7.6-2.9 10.9-5.3 7-14.3 9.3-22.1 5.7-6.2-2.8-11.5-10.4-11.5-16.6 0-3 2.4-8.8 4.7-11.6 5.5-6.4 14.3-8.5 21.9-5z" fill="#fff"/><path d="M1110.1 23.456c0 10.8.1 11.5 2 11.5 1.7 0 2-.7 2-4.5v-4.5h4.4c4 0 4.6.4 7.7 4.5 2.6 3.4 4.1 4.4 6.2 4.5h2.9l-3.6-4.2-3.6-4.2 3-1.2c2.7-1.2 3-1.7 3-6.2 0-2.6-.5-5.3-1.2-6-.8-.8-4.9-1.2-12-1.2h-10.8v11.5zm19.8-4.8c-.3 2.8-.4 2.8-8 3.1l-7.8.3v-6.1h16.1l-.3 2.7zM32.1 76.156c-13.5 24.3-26.2 47.2-28.3 51l-3.8 6.9 9.8-.3 9.7-.3 6.6-12 6.7-12 32.5-.3 32.6-.2 6.8 12.5 6.9 12.5h9.3c5 0 9.2-.3 9.2-.7 0-.4-12.5-23.3-27.7-51l-27.8-50.2-9-.1h-9l-24.5 44.2zm45.3-4.5c5.9 10.5 10.7 19.4 10.7 19.7 0 .3-10.3.6-22.9.6h-23l9.1-16.3c13.2-23.7 13.9-25 14.7-24 .4.4 5.6 9.4 11.4 20zm62.9 5c.3 43 .4 45 2.4 48.7 1.2 2.5 3.5 4.8 6 6 3.8 2 5.4 2.1 46.4 2.1 40.8 0 42.6-.1 46-2 2.1-1.2 4.4-3.9 5.8-6.5 2.2-4.4 2.2-4.8 2.2-48.7v-44.3h-18v85h-73v-85H140l.3 44.7zm121.8-36.2v8.5h41v85h18v-85h41v-17h-100v8.5zm123.7-7.3c-5.5 1.5-9.3 5.8-10.7 12.1-.8 3.5-1 16.6-.8 40.7.3 33.6.4 35.7 2.4 39.4 1.2 2.5 3.5 4.8 6 6 3.8 2 5.4 2.1 47.9 2.1 42.3 0 44.1-.1 47.5-2 2.1-1.2 4.4-3.9 5.8-6.5 2.2-4.4 2.2-5 2.2-42s0-37.6-2.2-42c-1.4-2.6-3.7-5.3-5.8-6.5-3.3-1.9-5.3-2-46-2.2-26.4-.1-43.9.3-46.3.9zm82.3 49.8v34h-76v-68h76v34z" fill="#fff"/><path d="M506.1 82.956v51h18v-44h50v-16h-50v-26h77v-16h-95v51zm108-.1v51.1h18v-42h34.5l16 21 16 21h21.7l-6.8-8.8c-3.8-4.8-11.1-14.1-16.2-20.7l-9.4-12 7.8-.7c9.2-.9 12.2-2 15.7-5.6 3.7-3.9 4.7-9.1 4.7-24.2 0-14.7-1-20.2-4.3-23.8-5.3-5.8-4.4-5.7-52.9-6l-44.8-.3v51zm81.9-32.5c1.9 1.7 2.1 3 2.1 11.6 0 14.4 2.5 13.4-35.1 13.8l-30.9.3v-28.2l30.9.3c28.7.3 31 .4 33 2.2zm58.9 32c-15.3 27.7-27.8 50.6-27.8 51 0 .3 4 .6 8.9.6h9l7.1-13 7.1-13h64.5l7 12.7 7 12.8 9.3.3c7.3.2 9.2 0 8.8-1-.3-.7-12.9-23.6-28-50.8l-27.5-49.5-8.8-.2-8.9-.3-27.7 50.4zm49.5-9.4l10.3 18.5-11.2.3c-6.2.1-16.7.1-23.3 0l-12-.3 11.6-20.9c11-19.8 11.7-20.7 12.9-18.5.7 1.3 6 10.7 11.7 20.9zm61.7 10v51h18l.2-41.5.3-41.6 34.5 41.6 34.5 41.5h20.5v-102h-18l.1 35.7c0 19.7.4 38 .9 40.8.4 2.7.7 5.1.6 5.2-.1.2-2-2.3-4.2-5.5-2.2-3.1-17.1-21.6-33.3-41l-29.2-35.2h-24.9v51zm121-43v8h41v86h18v-86h41v-16h-100v8z" fill="#DC492B"/><path d="M572.1 174.956v16h15.8c12.1 0 16.3-.3 17.8-1.4 1.7-1.3 1.9-2.7 1.9-14.6 0-11.9-.2-13.3-1.9-14.6-1.5-1.1-5.7-1.4-17.8-1.4h-15.8v16zm29.5 0v10.5l-11.7.3-11.8.3v-22.2l11.8.3 11.7.3v10.5zm10.5 0v16h32v-5h-26v-9h8c7.9 0 8 0 8-2.5s-.1-2.5-8-2.5h-8v-8h26v-5h-32v16zm38.5-14.6c-1.2.9-2 3-2.3 6.8-.4 4.7-.1 5.9 1.7 7.7 1.9 1.9 3.2 2.1 13.1 2.1h11v9h-10c-9.3 0-10-.1-10-2 0-1.6-.7-2-3.1-2-3 0-3.1.1-2.5 3.2 1 5.2 2.6 5.8 16.1 5.8 14.7 0 15.5-.5 15.5-9.6 0-3.2-.5-6.6-1-7.4-.7-1.1-3.7-1.6-12.7-2l-11.8-.5-.3-3.8-.3-3.7h9.5c8.9 0 9.6.1 9.6 2 0 1.6.7 2 3 2 2.7 0 3-.3 3-2.9 0-5-2.8-6.1-15.5-6.1-7.8 0-11.7.4-13 1.4zm35.5 14.6v16h6v-32h-6v16zm12.4-14.6c-1.7 1.3-1.9 2.7-1.9 14.6 0 16.7-.8 16 17.5 16 17.3 0 17.3 0 17.8-10.9l.4-8.1h-9.6c-9.6 0-9.6 0-9.6 2.5 0 2.4.2 2.5 6.5 2.5h6.5v9h-24v-22h12c11.3 0 12 .1 12 2 0 1.6.7 2 3.1 2 3 0 3.1-.1 2.5-3.3-.3-1.7-1.4-3.8-2.3-4.5-2.5-1.8-28.3-1.7-30.9.2zm37.6 14.6v16h5.9l.3-12.7.3-12.8 10.8 12.8c10 11.7 11.1 12.7 14.3 12.7h3.4v-32h-5.9l-.3 12-.3 12-10-12c-9.9-11.7-10.1-11.9-14.2-12h-4.3v16zm55-15.4c0 .3 3.6 4.8 8 10l8 9.5v6c0 5.9 0 5.9 3 5.9h3v-12.1l8.2-9.7 8.1-9.7-3.3-.3c-3-.3-3.9.2-6.9 4-2 2.3-4.9 5.8-6.6 7.6l-3 3.2-6-7.5c-5.2-6.6-6.4-7.5-9.2-7.5-1.8 0-3.3.2-3.3.6zm42.4.8c-1.7 1.3-1.9 2.7-1.9 14.6 0 16.7-.8 16 17.5 16s17.5.7 17.5-16c0-11.9-.2-13.3-1.9-14.6-2.8-2-28.4-2-31.2 0zm27.6 14.6v11h-24v-22h24v11zm10.2-1.4c.3 13.1.5 14.7 2.2 16 1.5 1 5.4 1.4 15.6 1.4 17.8 0 17 .9 17-17.8v-14.2h-6v27h-23v-27H871l.3 14.6zm39.8 1.4v16h6v-13h10.8l5.2 6.5c4.6 5.7 5.6 6.5 8.6 6.5h3.4l-5.1-6.5c-4.8-6.1-4.9-6.5-2.7-6.5 4.8 0 6.3-2.2 6.3-9.5 0-9.3-.3-9.5-18.2-9.5h-14.3v16zm26.5-6.5v4l-10.2.3-10.3.3v-9.2l10.3.3 10.2.3v4zm30.9-8.1c-1.7 1.3-1.9 2.7-1.9 14.6 0 16.7-.7 16 16.5 16 14.2 0 16-.8 16-6.8 0-2.9-.3-3.2-3-3.2-2.5 0-3 .4-3 2.5v2.5h-21v-22h21v2.5c0 2.1.5 2.5 3 2.5 2.7 0 3-.3 3-3.3 0-5.9-2-6.7-16.1-6.7-9.2 0-13 .4-14.5 1.4zm47.3 2.8c-1.4 2.4-4.4 7.7-6.7 11.8-2.3 4.1-5.3 9.4-6.7 11.7l-2.4 4.3h3c2.4 0 3.4-.7 5.2-4l2.3-4h20.5l2.3 4c1.8 3.2 2.9 4 5.1 4 1.6 0 2.7-.4 2.5-.8-.1-.5-4.1-7.7-8.8-16-7.7-13.8-8.7-15.2-11.2-15.2-2.2 0-3.2.9-5.1 4.2zm9.3 9l3.2 5.8h-7.1c-3.9 0-7.1-.3-7.1-.6 0-1.6 6.5-12.3 7.1-11.6.4.4 2.1 3.3 3.9 6.4zm17 2.8v16h6v-13h10.8l5.2 6.5c4.6 5.7 5.6 6.5 8.6 6.5h3.4l-5.1-6.5c-4.8-6.1-4.9-6.5-2.7-6.5 4.8 0 6.3-2.2 6.3-9.5 0-9.3-.3-9.5-18.2-9.5h-14.3v16zm26.5-6.5v4l-10.2.3-10.3.3v-9.2l10.3.3 10.2.3v4z" fill="#fff"/></svg>
